public/img/close.svg

<svg xmlns="http://www.w3.org/2000/svg" xmlns:xlink="http://www.w3.org/1999/xlink" width="128" zoomAndPan="magnify" viewBox="0 0 96 95.999999" height="128" preserveAspectRatio="xMidYMid meet" version="1.0"><path fill="#00ffe0" d="M 88.578125 96.699219 L 84.617188 92.691406 C 54.210938 62.050781 7.90625 15.472656 4.722656 12.773438 L 0.417969 9.125 L 7.65625 0.496094 L 11.984375 4.109375 C 16.398438 7.816406 84.839844 76.878906 92.632812 84.738281 L 96.609375 88.75 Z M 88.578125 96.699219 " fill-opacity="1" fill-rule="nonzero"/><path fill="#00ffe0" d="M 9.183594 96.621094 L 0.554688 89.371094 L 4.179688 85.054688 C 7.90625 80.640625 76.945312 12.199219 84.796875 4.40625 L 88.816406 0.429688 L 96.722656 8.460938 L 92.714844 12.421875 C 62.0625 42.804688 15.484375 89.144531 12.785156 92.316406 Z M 9.183594 96.621094 " fill-opacity="1" fill-rule="nonzero"/></svg>

<svg xmlns="http://www.w3.org/2000/svg" preserveAspectRatio="xMidYMid meet" version="1.0" viewBox="0 0 96 96" zoomAndPan="magnify"><path d="m88.578 96.7-3.96-4.009C54.21 62.051 7.905 15.473 4.722 12.773L.418 9.125 7.656.496l4.328 3.613c4.414 3.707 72.856 72.77 80.649 80.63l3.976 4.011Zm0 0" fill="#00ffe0" fill-opacity="1" fill-rule="nonzero"/><path d="m9.184 96.621-8.63-7.25 3.626-4.316C7.906 80.64 76.945 12.199 84.797 4.406L88.817.43l7.906 8.03-4.008 3.962c-30.653 30.383-77.23 76.723-79.93 79.894Zm0 0" fill="#00ffe0" fill-opacity="1" fill-rule="nonzero"/></svg>
